src/components/00-materials/images-raw/Suitcase.svg

<svg width="96" height="96" viewBox="0 0 96 96" fill="none" xmlns="http://www.w3.org/2000/svg">
<path d="M20 50V74C20 75.0609 20.4214 76.0783 21.1716 76.8284C21.9217 77.5786 22.9391 78 24 78H72C73.0609 78 74.0783 77.5786 74.8284 76.8284C75.5786 76.0783 76 75.0609 76 74V50M63 21L61 18.5C59.38 16.58 58.4 16 55.61 16H40.39C37.6 16 36.62 16.58 35 18.5L33 21M63 21H33M63 21L67 26M33 21L29 26" stroke="#00008F" stroke-width="2" stroke-linecap="round" stroke-linejoin="round"/>
<path d="M42 48V52C42 53.1046 42.8954 54 44 54H52C53.1046 54 54 53.1046 54 52V48C54 46.8954 53.1046 46 52 46H44C42.8954 46 42 46.8954 42 48Z" stroke="#00008F" stroke-width="2" stroke-linecap="round" stroke-linejoin="round"/>
<path d="M42 50H21C19.9391 50 18.9217 49.5786 18.1716 48.8284C17.4214 48.0783 17 47.0609 17 46V30C17 28.9391 17.4214 27.9217 18.1716 27.1716C18.9217 26.4214 19.9391 26 21 26H75C76.0609 26 77.0783 26.4214 77.8284 27.1716C78.5786 27.9217 79 28.9391 79 30V46C79 47.0609 78.5786 48.0783 77.8284 48.8284C77.0783 49.5786 76.0609 50 75 50H54M54 32H42H54ZM69 72H27H69ZM33 21H63H33Z" stroke="#00008F" stroke-width="2" stroke-linecap="round" stroke-linejoin="round"/>
</svg>

<svg width="96" height="96" viewBox="0 0 96 96" fill="none" xmlns="http://www.w3.org/2000/svg"><path d="M20 50v24a4 4 0 004 4h48a4 4 0 004-4V50M63 21l-2-2.5c-1.62-1.92-2.6-2.5-5.39-2.5H40.39c-2.79 0-3.77.58-5.39 2.5L33 21m30 0H33m30 0l4 5m-34-5l-4 5" stroke="#00008F" stroke-width="2" stroke-linecap="round" stroke-linejoin="round"/><path d="M42 48v4a2 2 0 002 2h8a2 2 0 002-2v-4a2 2 0 00-2-2h-8a2 2 0 00-2 2z" stroke="#00008F" stroke-width="2" stroke-linecap="round" stroke-linejoin="round"/><path d="M42 50H21a4 4 0 01-4-4V30a4 4 0 014-4h54a4 4 0 014 4v16a4 4 0 01-4 4H54m0-18H42h12zm15 40H27h42zM33 21h30-30z" stroke="#00008F" stroke-width="2" stroke-linecap="round" stroke-linejoin="round"/></svg>
